svg/fluentui-system-icons/ic_fluent_people_checkmark_16_regular.svg

<svg width="16" height="16" viewBox="0 0 16 16" fill="none" xmlns="http://www.w3.org/2000/svg">
<path d="M4 4.5C4 3.67157 4.67157 3 5.5 3C6.32843 3 7 3.67157 7 4.5C7 5.32843 6.32843 6 5.5 6C4.67157 6 4 5.32843 4 4.5ZM5.5 2C4.11929 2 3 3.11929 3 4.5C3 5.88071 4.11929 7 5.5 7C6.88071 7 8 5.88071 8 4.5C8 3.11929 6.88071 2 5.5 2ZM10.5 5C10.5 4.44772 10.9477 4 11.5 4C12.0523 4 12.5 4.44772 12.5 5C12.5 5.55228 12.0523 6 11.5 6C10.9477 6 10.5 5.55228 10.5 5ZM9.9225 6.22957C10.4222 6.08022 10.9517 6 11.5 6C12.0483 6 12.5778 6.08022 13.0775 6.22957C13.3423 5.89039 13.5 5.46362 13.5 5C13.5 3.89543 12.6046 3 11.5 3C10.3954 3 9.5 3.89543 9.5 5C9.5 5.46362 9.65775 5.89039 9.9225 6.22957ZM3 8H7.25716C7.00353 8.30711 6.78261 8.64222 6.59971 9H3C2.72386 9 2.5 9.22386 2.5 9.5V9.58971L2.50027 9.59656C2.50071 9.60562 2.50175 9.62229 2.50416 9.64547C2.50899 9.69201 2.51921 9.76366 2.54061 9.85193C2.58359 10.0292 2.66982 10.2662 2.84187 10.5028C3.16787 10.951 3.87788 11.5 5.5 11.5C5.67735 11.5 5.8438 11.4934 6.00003 11.4812L6 11.5C6 11.8335 6.02969 12.1601 6.08656 12.4772C5.90076 12.4922 5.70539 12.5 5.5 12.5C3.62212 12.5 2.58213 11.8458 2.03313 11.091C1.76768 10.726 1.63516 10.3614 1.56876 10.0875C1.53547 9.95021 1.51835 9.83386 1.50951 9.74881C1.50509 9.7062 1.50271 9.67118 1.50144 9.64499C1.50081 9.63188 1.50045 9.62096 1.50024 9.61238L1.50005 9.60127L1.50001 9.59705L1.5 9.59529L1.5 9.59375V9.5C1.5 8.67157 2.17157 8 3 8ZM16 11.5C16 13.9853 13.9853 16 11.5 16C9.01472 16 7 13.9853 7 11.5C7 9.01472 9.01472 7 11.5 7C13.9853 7 16 9.01472 16 11.5ZM13.8536 9.64645C13.6583 9.45118 13.3417 9.45118 13.1464 9.64645L10.5 12.2929L9.85355 11.6464C9.65829 11.4512 9.34171 11.4512 9.14645 11.6464C8.95118 11.8417 8.95118 12.1583 9.14645 12.3536L10.1464 13.3536C10.3417 13.5488 10.6583 13.5488 10.8536 13.3536L13.8536 10.3536C14.0488 10.1583 14.0488 9.84171 13.8536 9.64645Z" fill="#212121"/>
</svg>

<svg xmlns="http://www.w3.org/2000/svg" width="16" height="16"><path d="M4 4.5a1.5 1.5 0 1 1 3 0 1.5 1.5 0 0 1-3 0ZM5.5 2a2.5 2.5 0 1 0 0 5 2.5 2.5 0 0 0 0-5Zm5 3a1 1 0 1 1 2 0 1 1 0 0 1-2 0Zm-.578 1.23A5.5 5.5 0 0 1 11.5 6a5.5 5.5 0 0 1 1.578.23 2 2 0 1 0-3.155 0ZM3 8h4.257A5.508 5.508 0 0 0 6.6 9H3a.5.5 0 0 0-.5.5v.097l.004.048a1.853 1.853 0 0 0 .338.857c.326.449 1.036.998 2.658.998.177 0 .344-.007.5-.019v.019c0 .334.03.66.087.977a7.291 7.291 0 0 1-.587.023c-1.878 0-2.918-.654-3.467-1.409a2.853 2.853 0 0 1-.523-1.342 1.908 1.908 0 0 1-.01-.137V9.5A1.5 1.5 0 0 1 3 8Zm13 3.5a4.5 4.5 0 1 1-9 0 4.5 4.5 0 0 1 9 0Zm-2.146-1.854a.5.5 0 0 0-.708 0L10.5 12.293l-.646-.647a.5.5 0 0 0-.708.708l1 1a.5.5 0 0 0 .708 0l3-3a.5.5 0 0 0 0-.708Z"/></svg>
